X:1
T:Title
%%score [ ( 1 2 ) ( 3 4 ) ]
L:1/8
Q:1/4=100
M:4/4
K:Eb
V:1 treble nm="Midi_20"
V:2 treble 
V:3 bass nm="Midi_20"
V:4 bass 
V:1
"^New every morning is the love""^Samuel Webbe\n(1740-1816)""^John Keble\n(1792-1866)""^Melcombe (L.M.)" B2 | %1
 B2 A2 G2 F2 | E2 c2 B2 B2 | e2 d2 c2 B2 | B2 =A2 B4 || G2 | G2 A2 B2 G2 | F3 G A2 A2 | %8
 G2 F2 B2 A2 | G2 F2 E4 |] %10
V:2
 E2 | B,2 CD E2 D2 | C2 E2 E2 F2 | E2 F2 F2 D2 | G2 FE D4 || E2 | E2 DC B,2 E2 | D3 =E F2 F2 | %8
 E2 D2 E2 E2 | E2 D2 E4 |] %10
V:3
"^1. O timely happy, timely wise,\nHearts that with rising morn arise,\nEyes that the beam celestial view\nWhich evermore makes all things new!\n\n2. New every morning is the love\nOur wakening and uprising prove,\nThrough sleep and darkness safely brought,\nRestored to life, and power, and thought.\n\n3. New mercies, each returning day\nHover around us while we pray;\nNew perils past, new sins forgiven,\nNew thoughts of God, new hopes of heaven.\n\n4. If, on our daily course, our mind\nBe set to hallow all we find,\nNew treasures still, of countless price,\nGod will provide for sacrifice." G,2 | %1
 G,2 A,2 B,2 B,A, | G,2 A,2 G,2 B,2 | =A,2 B,2 A,2 B,2 | C2 C2 B,4 || %5
"^5. We need not bid, for cloistered cell,\nOur neighbour and our work farewell,\nNor strive to wind ourselves too high\nFor sinful man beneath the sky;\n\n6. The trivial round, the common task,\nWill furnish all we ought to ask;\nRoom to deny ourselves, a road\nTo bring us daily nearer God.\n\n7. Seek we no more; content with  these\nLet present rapture, comfort, ease,\nAs heaven shall bid them, come and go:\nThe secret this of rest below.\n\n8. Only, O Lord, in thy dear love,\nFit us for perfect rest above;\nAnd help us, this and every day,\nTo live more nearly as we pray." B,2 | %6
 B,2 A,2 G,2 B,2 | B,3 B, C2 B,2 | B,2 B,2 B,2 C2 | B,2 B,A, G,4 |] %10
V:4
 E,2 | G,2 F,2 E,2 B,,2 | C,2 A,,2 E,2 D,2 | C,2 D,E, F,2 G,2 | E,2 F,2 B,,4 || E,2 | %6
 E,2 F,2 G,2 E,2 | B,3 G, F,2 D,2 | E,2 B,,A,, G,,2 A,,2 | B,,2 B,,2 E,4 |] %10

